X:1
T:Absalom My Son
T:Fugue 4 in C# Minor from The Well-Tempered Clavier I
T:Absalom My Son Fugue 4 in C# Minor from The Well-Tempered Clavier I
T:J.S. Bach (1685-1750)Arrangement and textual setting by Peter Kalkavage (II Samuel 18:33)
T:Freshman Chorus, St. John's College of Annapolis
C:J.S. Bach (1685-1750)Arrangement and textual setting by Peter Kalkavage (II Samuel 18:33)
Z:Freshman Chorus, St. John's College of Annapolis
%%score 1 2 3 4
L:1/8
M:4/4
K:E
V:1 treble nm="S"
V:2 treble nm="A"
V:3 bass nm="T"
V:4 bass nm="B"
V:1
 z8 | z8 | z8 | z8 | z8 |"^6" z8 | z8 | z8 | z8 |"^10" z8 | z8 | z4 G4 | ^E4 A4 | G8 |] %14
w: |||||||||||O|* my|son.|
V:2
 z8 | z8 | z8 | z8 | z8 | z8 | z4 C4 | ^B,4 E4 | D8 | C4 F4- | F2 E2 D2 C2 | C4 B,4 | C4 F4 | %13
w: ||||||O|* my|son|would God|* * I had|died for|thee, my|
 F4 ^E4 |] %14
w: son *|
V:3
 z8 | z8 | z8 | G,8 | ^^F,4 B,4 | ^A,8 | G,4 =A,4- | A,2 G,F, G,2 C2 | F,2 G,A, B,4- | %9
w: |||O|* my|son|would God|* * * * I|had * * *|
 B,2 A,2 G,2 F,2 | G,4 F,2 E,2 | D,6 =D,2 | C,8- | C,8 |] %14
w: * had died for|thee. Ab- sa-|lom, my|son||
V:4
 C,8 | ^B,,4 E,4 | D,8 | C,2 D,2 E,4- | E,2 D,C, D,2 G,2 | (C,2 D,E, F,4- | F,2 E,2) D,2 C,2 | %7
w: O|* my|son,|Ab- sa- lom|* would * God I|had * * *|* * died for|
 D,4 (C,4- | C,2 B,,2) A,,2 G,,2 | A,,4 ^A,,4 | ^B,,4 C,4 | (G,,2 A,,2 B,,4- | %12
w: thee, had|* * died for|thee, my|son, my|Ab- sa- lom,|
 B,,2 A,,2) (G,,2 F,,2) | C,8 |] %14
w: * * my *|son.|

